images/portal/4463.svg

<?xml version="1.0" standalone="no"?>
<!DOCTYPE svg PUBLIC "-//W3C//DTD SVG 1.1//EN" "http://www.w3.org/Graphics/SVG/1.1/DTD/svg11.dtd">
<svg xmlns:xlink="http://www.w3.org/1999/xlink" version="1.1" class="highcharts-root" style="font-family:arial;font-size:12px;" xmlns="http://www.w3.org/2000/svg" viewBox="0 0 485 415">
  <desc>
    Created with Highstock 5.0.14
  </desc>
  <defs>
    <clipPath id="highcharts-67pka8w-6">
      <rect x="0" y="0" width="422" height="229" fill="none"/>
    </clipPath>
    <clipPath id="highcharts-67pka8w-7">
      <rect x="0" y="0" width="422" height="229" fill="none"/>
    </clipPath>
  </defs>
  <rect fill="#fbfbfb" class="highcharts-background" x="0" y="0" width="485" height="415" rx="0" ry="0"/>
  <rect fill="none" class="highcharts-plot-background" x="53" y="120" width="422" height="229"/>
  <g class="highcharts-pane-group"/>
  <g class="highcharts-grid highcharts-xaxis-grid ">
    <path fill="none" class="highcharts-grid-line" d="M 56.5 120 L 56.5 349" opacity="1"/>
    <path fill="none" class="highcharts-grid-line" d="M 160.5 120 L 160.5 349" opacity="1"/>
    <path fill="none" class="highcharts-grid-line" d="M 263.5 120 L 263.5 349" opacity="1"/>
    <path fill="none" class="highcharts-grid-line" d="M 366.5 120 L 366.5 349" opacity="1"/>
    <path fill="none" class="highcharts-grid-line" d="M 470.5 120 L 470.5 349" opacity="1"/>
  </g>
  <g class="highcharts-grid highcharts-yaxis-grid ">
    <path fill="none" stroke="#e6e6e6" stroke-width="1" class="highcharts-grid-line" d="M 53 349.5 L 475 349.5" opacity="1"/>
    <path fill="none" stroke="#e6e6e6" stroke-width="1" class="highcharts-grid-line" d="M 53 292.5 L 475 292.5" opacity="1"/>
    <path fill="none" stroke="#e6e6e6" stroke-width="1" class="highcharts-grid-line" d="M 53 235.5 L 475 235.5" opacity="1"/>
    <path fill="none" stroke="#e6e6e6" stroke-width="1" class="highcharts-grid-line" d="M 53 177.5 L 475 177.5" opacity="1"/>
    <path fill="none" stroke="#e6e6e6" stroke-width="1" class="highcharts-grid-line" d="M 53 119.5 L 475 119.5" opacity="1"/>
  </g>
  <rect fill="none" class="highcharts-plot-border" x="53" y="120" width="422" height="229"/>
  <g class="highcharts-axis highcharts-xaxis ">
    <path fill="none" class="highcharts-axis-line" stroke="#ccd6eb" stroke-width="1" d="M 53 349.5 L 475 349.5"/>
  </g>
  <g class="highcharts-axis highcharts-yaxis ">
    <path fill="none" class="highcharts-axis-line" d="M 53 120 L 53 349"/>
  </g>
  <g class="highcharts-series-group">
    <g class="highcharts-series highcharts-series-0 highcharts-line-series highcharts-color-undefined " transform="translate(53,120) scale(1 1)" clip-path="url(#highcharts-67pka8w-7)">
      <path fill="none" d="M 4.1372549019571 15.113999999999976 L 107.56862745098 14.426999999999992 L 211 12.594999999999999 L 314.43137254902 13.969000000000023 L 417.86274509804 14.884999999999991" class="highcharts-graph" stroke="#008AC3" stroke-width="2" stroke-linejoin="round" stroke-linecap="round"/>
    </g>
    <g class="highcharts-markers highcharts-series-0 highcharts-line-series highcharts-color-undefined " transform="translate(53,120) scale(1 1)" clip-path="none">
      <path fill="#008AC3" d="M 8 15 A 4 4 0 1 1 7.999998000000167 14.996000000666664 Z" class="highcharts-point"/>
      <path fill="#008AC3" d="M 111 14 A 4 4 0 1 1 110.99999800000016 13.996000000666664 Z" class="highcharts-point"/>
      <path fill="#008AC3" d="M 215 13 A 4 4 0 1 1 214.99999800000018 12.996000000666664 Z" class="highcharts-point"/>
      <path fill="#008AC3" d="M 318 14 A 4 4 0 1 1 317.9999980000002 13.996000000666664 Z" class="highcharts-point"/>
      <path fill="#008AC3" d="M 421 15 A 4 4 0 1 1 420.9999980000002 14.996000000666664 Z" class="highcharts-point"/>
    </g>
    <g class="highcharts-series highcharts-series-1 highcharts-line-series highcharts-color-undefined " transform="translate(53,120) scale(1 1)" clip-path="url(#highcharts-67pka8w-7)">
      <path fill="none" d="M 4.1372549019571 4.5800000000000125 L 107.56862745098 2.289999999999992 L 211 8.244 L 314.43137254902 5.724999999999994 L 417.86274509804 5.954000000000008" class="highcharts-graph" stroke="#990300" stroke-width="2" stroke-linejoin="round" stroke-linecap="round"/>
    </g>
    <g class="highcharts-markers highcharts-series-1 highcharts-line-series highcharts-color-undefined " transform="translate(53,120) scale(1 1)" clip-path="none">
      <path fill="#990300" d="M 8 5 A 4 4 0 1 1 7.999998000000167 4.9960000006666645 Z" class="highcharts-point"/>
      <path fill="#990300" d="M 111 2 A 4 4 0 1 1 110.99999800000016 1.9960000006666643 Z" class="highcharts-point"/>
      <path fill="#990300" d="M 215 8 A 4 4 0 1 1 214.99999800000018 7.9960000006666645 Z" class="highcharts-point"/>
      <path fill="#990300" d="M 318 6 A 4 4 0 1 1 317.9999980000002 5.9960000006666645 Z" class="highcharts-point"/>
      <path fill="#990300" d="M 421 6 A 4 4 0 1 1 420.9999980000002 5.9960000006666645 Z" class="highcharts-point"/>
    </g>
    <g class="highcharts-series highcharts-series-2 highcharts-line-series highcharts-color-undefined " transform="translate(53,120) scale(1 1)" clip-path="url(#highcharts-67pka8w-7)">
      <path fill="none" d="M 4.1372549019571 127.324 L 107.56862745098 128.469 L 211 130.75900000000001 L 314.43137254902 128.92700000000002 L 417.86274509804 133.965" class="highcharts-graph" stroke="orange" stroke-width="2" stroke-linejoin="round" stroke-linecap="round"/>
    </g>
    <g class="highcharts-markers highcharts-series-2 highcharts-line-series highcharts-color-undefined " transform="translate(53,120) scale(1 1)" clip-path="none">
      <path fill="orange" d="M 8 127 A 4 4 0 1 1 7.999998000000167 126.99600000066667 Z" class="highcharts-point"/>
      <path fill="orange" d="M 111 128 A 4 4 0 1 1 110.99999800000016 127.99600000066667 Z" class="highcharts-point"/>
      <path fill="orange" d="M 215 131 A 4 4 0 1 1 214.99999800000018 130.99600000066667 Z" class="highcharts-point"/>
      <path fill="orange" d="M 318 129 A 4 4 0 1 1 317.9999980000002 128.99600000066667 Z" class="highcharts-point"/>
      <path fill="orange" d="M 421 134 A 4 4 0 1 1 420.9999980000002 133.99600000066667 Z" class="highcharts-point"/>
    </g>
  </g>
  <text x="10" text-anchor="start" class="highcharts-title" style="color:#000000;font-size:14px;font-weight:bold;fill:#000000;" y="21">
    <tspan>Anteil Personen, welche zu Hause «deutsch» oder</tspan><tspan dy="17" x="10">«schweizerdeutsch» sprechen nach Staatsangehörigkeit 2010</tspan><tspan dy="17" x="10">bis 2014</tspan><title>Anteil Personen, welche zu Hause «deutsch» oder «schweizerdeutsch» sprechen nach Staatsangehörigkeit 2010 bis 2014</title>
  </text>
  <g class="highcharts-legend" transform="translate(45,60)">
    <rect fill="none" class="highcharts-legend-box" rx="0" ry="0" x="0" y="0" width="354" height="49" visibility="visible"/>
    <g>
      <g>
        <g class="highcharts-legend-item highcharts-line-series highcharts-color-undefined highcharts-series-0" transform="translate(8,3)">
          <path fill="none" d="M 0 11 L 16 11" class="highcharts-graph" stroke="#008AC3" stroke-width="2"/>
          <path fill="#008AC3" d="M 12 11 A 4 4 0 1 1 11.999998000000167 10.996000000666664 Z" class="highcharts-point"/>
          <text x="21" style="color:#333333;font-size:12px;font-weight:bold;cursor:pointer;fill:#333333;" text-anchor="start" y="15">
            <tspan>Schweiz</tspan>
          </text>
        </g>
        <g class="highcharts-legend-item highcharts-line-series highcharts-color-undefined highcharts-series-1" transform="translate(96.328125,3)">
          <path fill="none" d="M 0 11 L 16 11" class="highcharts-graph" stroke="#990300" stroke-width="2"/>
          <path fill="#990300" d="M 12 11 A 4 4 0 1 1 11.999998000000167 10.996000000666664 Z" class="highcharts-point"/>
          <text x="21" y="15" style="color:#333333;font-size:12px;font-weight:bold;cursor:pointer;fill:#333333;" text-anchor="start">
            <tspan>Österreich / Deutschland / Liechtenstein</tspan>
          </text>
        </g>
        <g class="highcharts-legend-item highcharts-line-series highcharts-color-undefined highcharts-series-2" transform="translate(8,22)">
          <path fill="none" d="M 0 11 L 16 11" class="highcharts-graph" stroke="orange" stroke-width="2"/>
          <path fill="orange" d="M 12 11 A 4 4 0 1 1 11.999998000000167 10.996000000666664 Z" class="highcharts-point"/>
          <text x="21" y="15" style="color:#333333;font-size:12px;font-weight:bold;cursor:pointer;fill:#333333;" text-anchor="start">
            <tspan>Restliches Ausland</tspan>
          </text>
        </g>
      </g>
    </g>
  </g>
  <g class="highcharts-axis-labels highcharts-xaxis-labels ">
    <text x="57.13725490195709" style="color:#000000;cursor:default;font-size:11px;fill:#000000;" text-anchor="middle" transform="translate(0,0)" y="368" opacity="1">
      <tspan>2010</tspan>
    </text>
    <text x="160.56862745097854" style="color:#000000;cursor:default;font-size:11px;fill:#000000;" text-anchor="middle" transform="translate(0,0)" y="368" opacity="1">
      <tspan>2011</tspan>
    </text>
    <text x="264" style="color:#000000;cursor:default;font-size:11px;fill:#000000;" text-anchor="middle" transform="translate(0,0)" y="368" opacity="1">
      <tspan>2012</tspan>
    </text>
    <text x="367.43137254902143" style="color:#000000;cursor:default;font-size:11px;fill:#000000;" text-anchor="middle" transform="translate(0,0)" y="368" opacity="1">
      <tspan>2013</tspan>
    </text>
    <text x="462.78125" style="color:#000000;cursor:default;font-size:11px;fill:#000000;" text-anchor="middle" transform="translate(0,0)" y="368" opacity="1">
      <tspan>2014</tspan>
    </text>
  </g>
  <g class="highcharts-axis-labels highcharts-yaxis-labels ">
    <text x="38" style="color:#000000;cursor:default;font-size:11px;fill:#000000;" text-anchor="end" transform="translate(0,0)" y="354" opacity="1">
      <tspan>0%</tspan>
    </text>
    <text x="38" style="color:#000000;cursor:default;font-size:11px;fill:#000000;" text-anchor="end" transform="translate(0,0)" y="296" opacity="1">
      <tspan>25%</tspan>
    </text>
    <text x="38" style="color:#000000;cursor:default;font-size:11px;fill:#000000;" text-anchor="end" transform="translate(0,0)" y="239" opacity="1">
      <tspan>50%</tspan>
    </text>
    <text x="38" style="color:#000000;cursor:default;font-size:11px;fill:#000000;" text-anchor="end" transform="translate(0,0)" y="182" opacity="1">
      <tspan>75%</tspan>
    </text>
    <text x="38" style="color:#000000;cursor:default;font-size:11px;fill:#000000;" text-anchor="end" transform="translate(0,0)" y="125" opacity="1">
      <tspan>100%</tspan>
    </text>
  </g>
  <text x="10" class="highcharts-credits" text-anchor="start" style="cursor:default;color:#000000;font-size:10px;fill:#000000;" y="400">
    <tspan>Quelle: Bundesamt für Statistik BFS, Strukturerhebung (SE)</tspan>
  </text>
</svg>

<svg class="highcharts-root" xmlns="http://www.w3.org/2000/svg" viewBox="0 0 485 415" font-family="arial" font-size="12">
    <defs>
        <clipPath id="a">
            <path fill="none" d="M0 0h422v229H0z"/>
        </clipPath>
    </defs>
    <rect fill="#fbfbfb" class="highcharts-background" width="485" height="415" rx="0" ry="0"/>
    <path fill="none" class="highcharts-plot-background" d="M53 120h422v229H53z"/>
    <g class="highcharts-grid highcharts-xaxis-grid">
        <path fill="none" class="highcharts-grid-line" d="M56.5 120v229m104-229v229m103-229v229m103-229v229m104-229v229"/>
    </g>
    <g class="highcharts-grid highcharts-yaxis-grid">
        <path fill="none" stroke="#e6e6e6" class="highcharts-grid-line" d="M53 349.5h422m-422-57h422m-422-57h422m-422-58h422m-422-58h422"/>
    </g>
    <path fill="none" class="highcharts-plot-border" d="M53 120h422v229H53z"/>
    <g class="highcharts-axis highcharts-xaxis">
        <path fill="none" class="highcharts-axis-line" stroke="#ccd6eb" d="M53 349.5h422"/>
    </g>
    <g class="highcharts-axis highcharts-yaxis">
        <path fill="none" class="highcharts-axis-line" d="M53 120v229"/>
    </g>
    <g class="highcharts-series-group">
        <g class="highcharts-series highcharts-series-0 highcharts-line-series highcharts-color-undefined" transform="translate(53 120)" clip-path="url(#a)">
            <path fill="none" d="M4.137 15.114l103.432-.687L211 12.595l103.431 1.374 103.432.916" class="highcharts-graph" stroke="#008AC3" stroke-width="2" stroke-linejoin="round" stroke-linecap="round"/>
        </g>
        <g class="highcharts-markers highcharts-series-0 highcharts-line-series highcharts-color-undefined">
            <path fill="#008AC3" d="M61 135a4 4 0 1 1 0-.004zm103-1a4 4 0 1 1 0-.004zm104-1a4 4 0 1 1 0-.004zm103 1a4 4 0 1 1 0-.004zm103 1a4 4 0 1 1 0-.004z" class="highcharts-point"/>
        </g>
        <g class="highcharts-series highcharts-series-1 highcharts-line-series highcharts-color-undefined" transform="translate(53 120)" clip-path="url(#a)">
            <path fill="none" d="M4.137 4.58L107.57 2.29 211 8.244l103.431-2.519 103.432.229" class="highcharts-graph" stroke="#990300" stroke-width="2" stroke-linejoin="round" stroke-linecap="round"/>
        </g>
        <g class="highcharts-markers highcharts-series-1 highcharts-line-series highcharts-color-undefined">
            <path fill="#990300" d="M61 125a4 4 0 1 1 0-.004zm103-3a4 4 0 1 1 0-.004zm104 6a4 4 0 1 1 0-.004zm103-2a4 4 0 1 1 0-.004zm103 0a4 4 0 1 1 0-.004z" class="highcharts-point"/>
        </g>
        <g class="highcharts-series highcharts-series-2 highcharts-line-series highcharts-color-undefined" transform="translate(53 120)" clip-path="url(#a)">
            <path fill="none" d="M4.137 127.324l103.432 1.145L211 130.759l103.431-1.832 103.432 5.038" class="highcharts-graph" stroke="orange" stroke-width="2" stroke-linejoin="round" stroke-linecap="round"/>
        </g>
        <g class="highcharts-markers highcharts-series-2 highcharts-line-series highcharts-color-undefined">
            <path fill="orange" d="M61 247a4 4 0 1 1 0-.004zm103 1a4 4 0 1 1 0-.004zm104 3a4 4 0 1 1 0-.004zm103-2a4 4 0 1 1 0-.004zm103 5a4 4 0 1 1 0-.004z" class="highcharts-point"/>
        </g>
    </g>
    <text x="10" class="highcharts-title" y="21" color="#000" font-size="14" font-weight="700">
        <tspan>Anteil Personen, welche zu Hause «deutsch» oder</tspan><tspan dy="17" x="10">«schweizerdeutsch» sprechen nach Staatsangehörigkeit 2010</tspan><tspan dy="17" x="10">bis 2014</tspan><title>Anteil Personen, welche zu Hause «deutsch» oder «schweizerdeutsch» sprechen nach Staatsangehörigkeit 2010 bis 2014</title>
    </text>
    <g class="highcharts-legend" transform="translate(45 60)">
        <rect fill="none" class="highcharts-legend-box" rx="0" ry="0" width="354" height="49"/>
        <g class="highcharts-legend-item highcharts-line-series highcharts-color-undefined highcharts-series-0">
            <path fill="none" d="M8 14h16" class="highcharts-graph" stroke="#008AC3" stroke-width="2"/>
            <path fill="#008AC3" d="M20 14a4 4 0 1 1 0-.004z" class="highcharts-point"/>
            <text x="21" y="15" color="#333" font-weight="700" cursor="pointer" fill="#333" transform="translate(8 3)">
                <tspan>Schweiz</tspan>
            </text>
        </g>
        <g class="highcharts-legend-item highcharts-line-series highcharts-color-undefined highcharts-series-1">
            <path fill="none" d="M96.328 14h16" class="highcharts-graph" stroke="#990300" stroke-width="2"/>
            <path fill="#990300" d="M108.328 14a4 4 0 1 1 0-.004z" class="highcharts-point"/>
            <text x="21" y="15" color="#333" font-weight="700" cursor="pointer" fill="#333" transform="translate(96.328 3)">
                <tspan>Österreich / Deutschland / Liechtenstein</tspan>
            </text>
        </g>
        <g class="highcharts-legend-item highcharts-line-series highcharts-color-undefined highcharts-series-2">
            <path fill="none" d="M8 33h16" class="highcharts-graph" stroke="orange" stroke-width="2"/>
            <path fill="orange" d="M20 33a4 4 0 1 1 0-.004z" class="highcharts-point"/>
            <text x="21" y="15" color="#333" font-weight="700" cursor="pointer" fill="#333" transform="translate(8 22)">
                <tspan>Restliches Ausland</tspan>
            </text>
        </g>
    </g>
    <g class="highcharts-axis-labels highcharts-xaxis-labels" text-anchor="middle" color="#000" cursor="default" font-size="11">
        <text x="57.137" y="368">
            <tspan>2010</tspan>
        </text>
        <text x="160.569" y="368">
            <tspan>2011</tspan>
        </text>
        <text x="264" y="368">
            <tspan>2012</tspan>
        </text>
        <text x="367.431" y="368">
            <tspan>2013</tspan>
        </text>
        <text x="462.781" y="368">
            <tspan>2014</tspan>
        </text>
    </g>
    <g class="highcharts-axis-labels highcharts-yaxis-labels" text-anchor="end" color="#000" cursor="default" font-size="11">
        <text x="38" y="354">
            <tspan>0%</tspan>
        </text>
        <text x="38" y="296">
            <tspan>25%</tspan>
        </text>
        <text x="38" y="239">
            <tspan>50%</tspan>
        </text>
        <text x="38" y="182">
            <tspan>75%</tspan>
        </text>
        <text x="38" y="125">
            <tspan>100%</tspan>
        </text>
    </g>
    <text x="10" class="highcharts-credits" y="400" cursor="default" color="#000" font-size="10">
        <tspan>Quelle: Bundesamt für Statistik BFS, Strukturerhebung (SE)</tspan>
    </text>
</svg>
